X:17
T:The Pride of Rathmore
R:reel
C:traditional
O:Irish
D:Maire O'Keeffe, An Coisir
S:Silver Apple News,1994
N:Contacts ...
N:..... Cranford Publications <http://www.cranfordpub.com>
Z:This abc transcription is for personal use only,
Z:provided this notice remains attached.
Z:Paul Stewart Cranford <psc@cranfordpub.com>
Q:333
L:1/8
M:C|
K:Edor
E3 F G2EF|GBAG FDDF|EDEF GFGA|(3(Bcd) ed (3(Bcd) ed|!
E3 F G2EF|GBAG FDDF|EDEF G2 GA|(3(Bcd) ed BE E2||!
efed (3(Bcd) ef|geag fedf|efed (3(Bcd) eg|fedf e2 ed|!
(3(Bcd) ed (3(Bcd) ef| geag fddf|g3 e dged|(3(Bcd) ed BEED|]!

